favicon.svg

<svg viewBox="0 0 2302 2302" xmlns="http://www.w3.org/2000/svg" xml:space="preserve" style="fill-rule:evenodd;clip-rule:evenodd;stroke-linejoin:round;stroke-miterlimit:2"><path style="fill:none" d="M-557.075 332.972h2302v2302h-2302z" transform="translate(557.075 -332.972)"/><path d="M1801.06 0H517.694C473.404 0 437.5 35.904 437.5 80.194V437.5l743.75 218.75 700-218.75V80.194c0-44.29-35.9-80.194-80.19-80.194z" style="fill:#41a5ee;fill-rule:nonzero" transform="translate(38.399 116.02) scale(1.18283)"/><path d="M1881.25 437.5H437.5V875l743.75 131.25 700-131.25V437.5z" style="fill:#2b7cd3;fill-rule:nonzero" transform="translate(38.399 116.02) scale(1.18283)"/><path d="M437.5 875v437.5l700 87.5 743.75-87.5V875H437.5z" style="fill:#185abd;fill-rule:nonzero" transform="translate(38.399 116.02) scale(1.18283)"/><path d="M517.694 1750H1801.06c44.29 0 80.19-35.9 80.19-80.19V1312.5H437.5v357.31c0 44.29 35.904 80.19 80.194 80.19z" style="fill:#103f91;fill-rule:nonzero" transform="translate(38.399 116.02) scale(1.18283)"/><path d="M969.806 350H437.5v1093.75h532.306c44.234-.14 80.054-35.96 80.194-80.19V430.194c-.14-44.23-35.96-80.05-80.194-80.194z" style="fill-opacity:.1;fill-rule:nonzero" transform="translate(38.399 116.02) scale(1.18283)"/><path d="M926.056 393.75H437.5V1487.5h488.556c44.23-.14 80.054-35.96 80.194-80.19V473.944c-.14-44.23-35.964-80.05-80.194-80.194z" style="fill-opacity:.2;fill-rule:nonzero" transform="translate(38.399 116.02) scale(1.18283)"/><path d="M926.056 393.75H437.5V1400h488.556c44.23-.14 80.054-35.96 80.194-80.19V473.944c-.14-44.23-35.964-80.05-80.194-80.194z" style="fill-opacity:.2;fill-rule:nonzero" transform="translate(38.399 116.02) scale(1.18283)"/><path d="M882.306 393.75H437.5V1400h444.806c44.23-.14 80.05-35.96 80.194-80.19V473.944c-.144-44.23-35.964-80.05-80.194-80.194z" style="fill-opacity:.2;fill-rule:nonzero" transform="translate(38.399 116.02) scale(1.18283)"/><path d="M80.194 393.75h802.112c44.29 0 80.194 35.904 80.194 80.194v802.116c0 44.29-35.904 80.19-80.194 80.19H80.194c-44.29 0-80.194-35.9-80.194-80.19V473.944c0-44.29 35.904-80.194 80.194-80.194z" style="fill:url(#a);fill-rule:nonzero" transform="translate(38.399 116.02) scale(1.18283)"/><text style="font-family:'IBMPlexMono-Bold','IBM Plex Mono',monospace;font-weight:700;font-size:50px;fill:#fff" transform="translate(233.831 1367.138) scale(12.388)">M$</text><defs><linearGradient id="a" x1="0" y1="0" x2="1" y2="0" gradientUnits="userSpaceOnUse" gradientTransform="scale(1256.124) rotate(59.999 -.162 .247)"><stop offset="0" style="stop-color:#2368c4;stop-opacity:1"/><stop offset=".5" style="stop-color:#1a5dbe;stop-opacity:1"/><stop offset="1" style="stop-color:#1146ac;stop-opacity:1"/></linearGradient></defs></svg>

<?xml version="1.0" encoding="UTF-8" standalone="no"?>
<!DOCTYPE svg PUBLIC "-//W3C//DTD SVG 1.1//EN" "http://www.w3.org/Graphics/SVG/1.1/DTD/svg11.dtd">
<svg width="100%" height="100%" viewBox="0 0 2302 2302" version="1.1" xmlns="http://www.w3.org/2000/svg" xmlns:xlink="http://www.w3.org/1999/xlink" xml:space="preserve" xmlns:serif="http://www.serif.com/" style="fill-rule:evenodd;clip-rule:evenodd;stroke-linejoin:round;stroke-miterlimit:2;">
    <g id="画板1" transform="matrix(1,0,0,1,557.075,-332.972)">
        <rect x="-557.075" y="332.972" width="2302" height="2302" style="fill:none;"/>
        <g transform="matrix(1.88226,0,0,1.88226,-389.591,-1309.25)">
            <g transform="matrix(0.628409,0,0,0.628409,-68.58,934.112)">
                <path d="M1801.06,0L517.694,0C473.404,0 437.5,35.904 437.5,80.194L437.5,437.5L1181.25,656.25L1881.25,437.5L1881.25,80.194C1881.25,35.904 1845.35,0 1801.06,0Z" style="fill:rgb(65,165,238);fill-rule:nonzero;"/>
            </g>
            <g transform="matrix(0.628409,0,0,0.628409,-68.58,934.112)">
                <path d="M1881.25,437.5L437.5,437.5L437.5,875L1181.25,1006.25L1881.25,875L1881.25,437.5Z" style="fill:rgb(43,124,211);fill-rule:nonzero;"/>
            </g>
            <g transform="matrix(0.628409,0,0,0.628409,-68.58,934.112)">
                <path d="M437.5,875L437.5,1312.5L1137.5,1400L1881.25,1312.5L1881.25,875L437.5,875Z" style="fill:rgb(24,90,189);fill-rule:nonzero;"/>
            </g>
            <g transform="matrix(0.628409,0,0,0.628409,-68.58,934.112)">
                <path d="M517.694,1750L1801.06,1750C1845.35,1750 1881.25,1714.1 1881.25,1669.81L1881.25,1312.5L437.5,1312.5L437.5,1669.81C437.5,1714.1 473.404,1750 517.694,1750Z" style="fill:rgb(16,63,145);fill-rule:nonzero;"/>
            </g>
            <g transform="matrix(0.628409,0,0,0.628409,-68.58,934.112)">
                <path d="M969.806,350L437.5,350L437.5,1443.75L969.806,1443.75C1014.04,1443.61 1049.86,1407.79 1050,1363.56L1050,430.194C1049.86,385.964 1014.04,350.144 969.806,350Z" style="fill-opacity:0.1;fill-rule:nonzero;"/>
            </g>
            <g transform="matrix(0.628409,0,0,0.628409,-68.58,934.112)">
                <path d="M926.056,393.75L437.5,393.75L437.5,1487.5L926.056,1487.5C970.286,1487.36 1006.11,1451.54 1006.25,1407.31L1006.25,473.944C1006.11,429.714 970.286,393.894 926.056,393.75Z" style="fill-opacity:0.2;fill-rule:nonzero;"/>
            </g>
            <g transform="matrix(0.628409,0,0,0.628409,-68.58,934.112)">
                <path d="M926.056,393.75L437.5,393.75L437.5,1400L926.056,1400C970.286,1399.86 1006.11,1364.04 1006.25,1319.81L1006.25,473.944C1006.11,429.714 970.286,393.894 926.056,393.75Z" style="fill-opacity:0.2;fill-rule:nonzero;"/>
            </g>
            <g transform="matrix(0.628409,0,0,0.628409,-68.58,934.112)">
                <path d="M882.306,393.75L437.5,393.75L437.5,1400L882.306,1400C926.536,1399.86 962.356,1364.04 962.5,1319.81L962.5,473.944C962.356,429.714 926.536,393.894 882.306,393.75Z" style="fill-opacity:0.2;fill-rule:nonzero;"/>
            </g>
            <g transform="matrix(0.628409,0,0,0.628409,-68.58,934.112)">
                <path d="M80.194,393.75L882.306,393.75C926.596,393.75 962.5,429.654 962.5,473.944L962.5,1276.06C962.5,1320.35 926.596,1356.25 882.306,1356.25L80.194,1356.25C35.904,1356.25 0,1320.35 0,1276.06L0,473.944C0,429.654 35.904,393.75 80.194,393.75Z" style="fill:url(#_Linear1);fill-rule:nonzero;"/>
            </g>
            <g transform="matrix(6.58146,0,0,6.58146,-933.325,-7139.27)">
                <text x="147.167px" y="1327.68px" style="font-family:'IBMPlexMono-Bold', 'IBM Plex Mono', monospace;font-weight:700;font-size:50px;fill:white;">M$</text>
            </g>
        </g>
    </g>
    <defs>
        <linearGradient id="_Linear1" x1="0" y1="0" x2="1" y2="0" gradientUnits="userSpaceOnUse" gradientTransform="matrix(628.089,1087.82,-1087.82,628.089,167.206,331.088)"><stop offset="0" style="stop-color:rgb(35,104,196);stop-opacity:1"/><stop offset="0.5" style="stop-color:rgb(26,93,190);stop-opacity:1"/><stop offset="1" style="stop-color:rgb(17,70,172);stop-opacity:1"/></linearGradient>
    </defs>
</svg>
